X: 47
T: 47. Vater unser im Himmelreich
N: Derived from chor047.krn
C: Johann Sebastian Bach
%%abc-version 2.0
%%abcx-abcm2ps-target-version 5.9.1 (29 Sep 2008)
%%abc-creator hum2abc beta
%%abcx-conversion-date 2019/03/11 17:28:17
%%abc-edited-by Craig Stuart Sapp
%%humdrum-veritas 882585912
%%humdrum-veritas-data 22264508
%%
%%barnumbers 0
L: 1/4
M: C
%%staves [1 2 3 4]
V: 1 clef=treble
V: 2 clef=treble
V: 3 clef=treble-8
V: 4 clef=bass
K: F
[V:1] A [I:setbarnb 1]| 
[V:2] F | 
[V:3] d | 
[V:4] D, | 
[V:1] AFGA | 
[V:2] ED^CD/E/ | 
[V:3] AAGd | 
[V:4] ^C,D,E,F,/G,/ | 
[V:1] FE!fermata!DA | 
[V:2] F^C!fermata!A,F | 
[V:3] dA!fermata!Fd | 
[V:4] A,A,,!fermata!D,D, | 
[V:1] AGcA | 
[V:2] EDEF | 
[V:3] ABcc | 
[V:4] C,B,,A,,/C,/F, | 
[V:1] FG!fermata!AA/=B/ | 
[V:2] FE/D/!fermata!EE | 
[V:3] d/^c/d!fermata!^cc | 
[V:4] B,B,!fermata!A,A,/G,/ | 
[V:1] cd/e/fe | 
[V:2] AGFG | 
[V:3] c/A/ =B/^c/ d/c/B | 
[V:4] F,3/E,/D,G, | 
[V:1] d^c!fermata!dd | 
[V:2] F/E/E!fermata!FF | 
[V:3] =BA!fermata!A=B | 
[V:4] ^G,A,!fermata!D,=G, | 
[V:1] edc=B | 
[V:2] E=BEE/D/ | 
[V:3] =B/A/ A/^G/A^G | 
[V:4] C,=B,,A,,E, | 
[V:1] A^G!fermata!Ad | 
[V:2] C/D/E!fermata!EG | 
[V:3] A=B!fermata!c=B | 
[V:4] F,E,!fermata!A,,=G,/F,/ | 
[V:1] c=BcA | 
[V:2] GFGF | 
[V:3] cded | 
[V:4] E,D,C,D,/C,/ | 
[V:1] AG!fermata!FA | 
[V:2] FE!fermata!CD | 
[V:3] d/c/_B!fermata!AA | 
[V:4] _B,,C,!fermata!F,^F, | 
[V:1] BA/G/FG | 
[V:2] DEDD | 
[V:3] G/=F/EAG/A/ | 
[V:4] G,^C,D,/=C,/B,,/A,,/ | 
[V:1] FE!fermata!D |]  
[V:2] D^C!fermata!A, |]  
[V:3] =BE/F//G//!fermata!^F |]  
[V:4] ^G,,A,,!fermata!D, |]  



